Workspace/gamma2.2-1.8.cube
TITLE "Generated by V7"
LUT_1D_SIZE 65536
#IMAGEPROFILE
0.0000000 0.0000000 0.0000000
0.0000013 0.0000013 0.0000013
0.0000030 0.0000030 0.0000030
0.0000050 0.0000050 0.0000050
0.0000071 0.0000071 0.0000071
0.0000093 0.0000093 0.0000093
0.0000116 0.0000116 0.0000116
0.0000140 0.0000140 0.0000140
0.0000165 0.0000165 0.0000165
0.0000190 0.0000190 0.0000190
0.0000216 0.0000216 0.0000216
0.0000243 0.0000243 0.0000243
0.0000271 0.0000271 0.0000271
0.0000298 0.0000298 0.0000298
0.0000327 0.0000327 0.0000327
0.0000355 0.0000355 0.0000355
0.0000385 0.0000385 0.0000385
0.0000414 0.0000414 0.0000414
0.0000444 0.0000444 0.0000444
0.0000474 0.0000474 0.0000474
0.0000505 0.0000505 0.0000505
0.0000536 0.0000536 0.0000536
0.0000567 0.0000567 0.0000567
0.0000599 0.0000599 0.0000599
0.0000631 0.0000631 0.0000631
0.0000663 0.0000663 0.0000663
0.0000696 0.0000696 0.0000696
0.0000729 0.0000729 0.0000729
0.0000762 0.0000762 0.0000762
0.0000795 0.0000795 0.0000795
0.0000829 0.0000829 0.0000829
0.0000863 0.0000863 0.0000863
0.0000897 0.0000897 0.0000897
0.0000931 0.0000931 0.0000931
0.0000966 0.0000966 0.0000966
0.0001001 0.0001001 0.0001001
0.0001036 0.0001036 0.0001036
0.0001071 0.0001071 0.0001071
0.0001107 0.0001107 0.0001107
0.0001142 0.0001142 0.0001142
0.0001178 0.0001178 0.0001178
0.0001214 0.0001214 0.0001214
0.0001251 0.0001251 0.0001251
0.0001287 0.0001287 0.0001287
0.0001324 0.0001324 0.0001324
0.0001361 0.0001361 0.0001361
0.0001398 0.0001398 0.0001398
0.0001435 0.0001435 0.0001435
0.0001472 0.0001472 0.0001472
0.0001510 0.0001510 0.0001510
0.0001548 0.0001548 0.0001548
0.0001586 0.0001586 0.0001586
0.0001624 0.0001624 0.0001624
0.0001662 0.0001662 0.0001662
0.0001700 0.0001700 0.0001700
0.0001739 0.0001739 0.0001739
0.0001778 0.0001778 0.0001778
0.0001817 0.0001817 0.0001817
0.0001856 0.0001856 0.0001856
0.0001895 0.0001895 0.0001895
0.0001934 0.0001934 0.0001934
0.0001974 0.0001974 0.0001974
0.0002013 0.0002013 0.0002013
0.0002053 0.0002053 0.0002053
0.0002093 0.0002093 0.0002093
0.0002133 0.0002133 0.0002133
0.0002173 0.0002173 0.0002173
0.0002213 0.0002213 0.0002213
0.0002254 0.0002254 0.0002254
0.0002294 0.0002294 0.0002294
0.0002335 0.0002335 0.0002335
0.0002376 0.0002376 0.0002376
0.0002417 0.0002417 0.0002417
0.0002458 0.0002458 0.0002458
0.0002499 0.0002499 0.0002499
0.0002541 0.0002541 0.0002541
0.0002582 0.0002582 0.0002582
0.0002624 0.0002624 0.0002624
0.0002665 0.0002665 0.0002665
0.0002707 0.0002707 0.0002707
0.0002749 0.0002749 0.0002749
0.0002791 0.0002791 0.0002791
0.0002833 0.0002833 0.0002833
0.0002876 0.0002876 0.0002876
0.0002918 0.0002918 0.0002918
0.0002961 0.0002961 0.0002961
0.0003003 0.0003003 0.0003003
0.0003046 0.0003046 0.0003046
0.0003089 0.0003089 0.0003089
0.0003132 0.0003132 0.0003132
0.0003175 0.0003175 0.0003175
0.0003218 0.0003218 0.0003218
0.0003261 0.0003261 0.0003261
0.0003305 0.0003305 0.0003305
0.0003348 0.0003348 0.0003348
0.0003392 0.0003392 0.0003392
0.0003435 0.0003435 0.0003435
0.0003479 0.0003479 0.0003479
0.0003523 0.0003523 0.0003523
0.0003567 0.0003567 0.0003567
0.0003611 0.0003611 0.0003611
0.0003655 0.0003655 0.0003655
0.0003700 0.0003700 0.0003700
0.0003744 0.0003744 0.0003744
0.0003788 0.0003788 0.0003788
0.0003833 0.0003833 0.0003833
0.0003878 0.0003878 0.0003878
0.0003922 0.0003922 0.0003922
0.0003967 0.0003967 0.0003967
0.0004012 0.0004012 0.0004012
0.0004057 0.0004057 0.0004057
0.0004102 0.0004102 0.0004102
0.0004148 0.0004148 0.0004148
0.0004193 0.0004193 0.0004193
0.0004238 0.0004238 0.0004238
0.0004284 0.0004284 0.0004284
0.0004329 0.0004329 0.0004329
0.0004375 0.0004375 0.0004375
0.0004421 0.0004421 0.0004421
0.0004467 0.0004467 0.0004467
0.0004513 0.0004513 0.0004513
0.0004559 0.0004559 0.0004559
0.0004605 0.0004605 0.0004605
0.0004651 0.0004651 0.0004651
0.0004697 0.0004697 0.0004697
0.0004743 0.0004743 0.0004743
0.0004790 0.0004790 0.0004790
0.0004836 0.0004836 0.0004836
0.0004883 0.0004883 0.0004883
0.0004930 0.0004930 0.0004930
0.0004976 0.0004976 0.0004976
0.0005023 0.0005023 0.0005023
0.0005070 0.0005070 0.0005070
0.0005117 0.0005117 0.0005117
0.0005164 0.0005164 0.0005164
0.0005211 0.0005211 0.0005211
0.0005258 0.0005258 0.0005258
0.0005306 0.0005306 0.0005306
0.0005353 0.0005353 0.0005353
0.0005401 0.0005401 0.0005401
0.0005448 0.0005448 0.0005448
0.0005496 0.0005496 0.0005496
0.0005543 0.0005543 0.0005543
0.0005591 0.0005591 0.0005591
0.0005639 0.0005639 0.0005639
0.0005687 0.0005687 0.0005687
0.0005735 0.0005735 0.0005735
0.0005783 0.0005783 0.0005783
0.0005831 0.0005831 0.0005831
0.0005879 0.0005879 0.0005879
0.0005927 0.0005927 0.0005927
0.0005976 0.0005976 0.0005976
0.0006024 0.0006024 0.0006024
0.0006073 0.0006073 0.0006073
0.0006121 0.0006121 0.0006121
0.0006170 0.0006170 0.0006170
0.0006218 0.0006218 0.0006218
0.0006267 0.0006267 0.0006267
0.0006316 0.0006316 0.0006316
0.0006365 0.0006365 0.0006365
0.0006414 0.0006414 0.0006414
0.0006463 0.0006463 0.0006463
0.0006512 0.0006512 0.0006512
0.0006561 0.0006561 0.0006561
0.0006610 0.0006610 0.0006610
0.0006660 0.0006660 0.0006660
0.0006709 0.0006709 0.0006709
0.0006759 0.0006759 0.0006759
0.0006808 0.0006808 0.0006808
0.0006858 0.0006858 0.0006858
0.0006907 0.0006907 0.0006907
0.0006957 0.0006957 0.0006957
0.0007007 0.0007007 0.0007007
0.0007056 0.0007056 0.0007056
0.0007106 0.0007106 0.0007106
0.0007156 0.0007156 0.0007156
0.0007206 0.0007206 0.0007206
0.0007256 0.0007256 0.0007256
0.0007307 0.0007307 0.0007307
0.0007357 0.0007357 0.0007357
0.0007407 0.0007407 0.0007407
0.0007457 0.0007457 0.0007457
0.0007508 0.0007508 0.0007508
0.0007558 0.0007558 0.0007558
0.0007609 0.0007609 0.0007609
0.0007659 0.0007659 0.0007659
0.0007710 0.0007710 0.0007710
0.0007761 0.0007761 0.0007761
0.0007811 0.0007811 0.0007811
0.0007862 0.0007862 0.0007862
0.0007913 0.0007913 0.0007913
0.0007964 0.0007964 0.0007964
0.0008015 0.0008015 0.0008015
0.0008066 0.0008066 0.0008066
0.0008117 0.0008117 0.0008117
0.0008168 0.0008168 0.0008168
0.0008220 0.0008220 0.0008220
0.0008271 0.0008271 0.0008271
0.0008322 0.0008322 0.0008322
0.0008374 0.0008374 0.0008374
0.0008425 0.0008425 0.0008425
0.0008477 0.0008477 0.0008477
0.0008528 0.0008528 0.0008528
0.0008580 0.0008580 0.0008580
0.0008631 0.0008631 0.0008631
0.0008683 0.0008683 0.0008683
0.0008735 0.0008735 0.0008735
0.0008787 0.0008787 0.0008787
0.0008839 0.0008839 0.0008839
0.0008891 0.0008891 0.0008891
0.0008943 0.0008943 0.0008943
0.0008995 0.0008995 0.0008995
0.0009047 0.0009047 0.0009047
0.0009099 0.0009099 0.0009099
0.0009151 0.0009151 0.0009151
0.0009204 0.0009204 0.0009204
0.0009256 0.0009256 0.0009256
0.0009308 0.0009308 0.0009308
0.0009361 0.0009361 0.0009361
0.0009413 0.0009413 0.0009413
0.0009466 0.0009466 0.0009466
0.0009518 0.0009518 0.0009518
0.0009571 0.0009571 0.0009571
0.0009624 0.0009624 0.0009624
0.0009677 0.0009677 0.0009677
0.0009729 0.0009729 0.0009729
0.0009782 0.0009782 0.0009782
0.0009835 0.0009835 0.0009835
0.0009888 0.0009888 0.0009888
0.0009941 0.0009941 0.0009941
0.0009994 0.0009994 0.0009994
0.0010048 0.0010048 0.0010048
0.0010101 0.0010101 0.0010101
0.0010154 0.0010154 0.0010154
0.0010207 0.0010207 0.0010207
0.0010261 0.0010261 0.0010261
0.0010314 0.0010314 0.0010314
0.0010367 0.0010367 0.0010367
0.0010421 0.0010421 0.0010421
0.0010474 0.0010474 0.0010474
0.0010528 0.0010528 0.0010528
0.0010582 0.0010582 0.0010582
0.0010635 0.0010635 0.0010635
0.0010689 0.0010689 0.0010689
0.0010743 0.0010743 0.0010743
0.0010797 0.0010797 0.0010797
0.0010851 0.0010851 0.0010851
0.0010905 0.0010905 0.0010905
0.0010959 0.0010959 0.0010959
0.0011013 0.0011013 0.0011013
0.0011067 0.0011067 0.0011067
0.0011121 0.0011121 0.0011121
0.0011175 0.0011175 0.0011175
0.0011229 0.0011229 0.0011229
0.0011283 0.0011283 0.0011283
0.0011338 0.0011338 0.0011338
0.0011392 0.0011392 0.0011392
0.0011447 0.0011447 0.0011447
0.0011501 0.0011501 0.0011501
0.0011555 0.0011555 0.0011555
0.0011610 0.0011610 0.0011610
0.0011665 0.0011665 0.0011665
0.0011719 0.0011719 0.0011719
0.0011774 0.0011774 0.0011774
0.0011829 0.0011829 0.0011829
0.0011883 0.0011883 0.0011883
0.0011938 0.0011938 0.0011938
0.0011993 0.0011993 0.0011993
0.0012048 0.0012048 0.0012048
0.0012103 0.0012103 0.0012103
0.0012158 0.0012158 0.0012158
0.0012213 0.0012213 0.0012213
0.0012268 0.0012268 0.0012268
0.0012323 0.0012323 0.0012323
0.0012379 0.0012379 0.0012379
0.0012434 0.0012434 0.0012434
0.0012489 0.0012489 0.0012489
0.0012544 0.0012544 0.0012544
0.0012600 0.0012600 0.0012600
0.0012655 0.0012655 0.0012655
0.0012711 0.0012711 0.0012711
0.0012766 0.0012766 0.0012766
0.0012822 0.0012822 0.0012822
0.0012877 0.0012877 0.0012877
0.0012933 0.0012933 0.0012933
0.0012989 0.0012989 0.0012989
0.0013044 0.0013044 0.0013044
0.0013100 0.0013100 0.0013100
0.0013156 0.0013156 0.0013156
0.0013212 0.0013212 0.0013212
0.0013268 0.0013268 0.0013268
0.0013324 0.0013324 0.0013324
0.0013380 0.0013380 0.0013380
0.0013436 0.0013436 0.0013436
0.0013492 0.0013492 0.0013492
0.0013548 0.0013548 0.0013548
0.0013604 0.0013604 0.0013604
0.0013660 0.0013660 0.0013660
0.0013716 0.0013716 0.0013716
0.0013773 0.0013773 0.0013773
0.0013829 0.0013829 0.0013829
0.0013885 0.0013885 0.0013885
0.0013942 0.0013942 0.0013942
0.0013998 0.0013998 0.0013998
0.0014055 0.0014055 0.0014055
0.0014111 0.0014111 0.0014111
0.0014168 0.0014168 0.0014168
0.0014224 0.0014224 0.0014224
0.0014281 0.0014281 0.0014281
0.0014338 0.0014338 0.0014338
0.0014395 0.0014395 0.0014395
0.0014451 0.0014451 0.0014451
0.0014508 0.0014508 0.0014508
0.0014565 0.0014565 0.0014565
0.0014622 0.0014622 0.0014622
0.0014679 0.0014679 0.0014679
0.0014736 0.0014736 0.0014736
0.0014793 0.0014793 0.0014793
0.0014850 0.0014850 0.0014850
0.0014907 0.0014907 0.0014907
0.0014964 0.0014964 0.0014964
0.0015021 0.0015021 0.0015021
0.0015078 0.0015078 0.0015078
0.0015136 0.0015136 0.0015136
0.0015193 0.0015193 0.0015193
0.0015250 0.0015250 0.0015250
0.0015308 0.0015308 0.0015308
0.0015365 0.0015365 0.0015365
0.0015423 0.0015423 0.0015423
0.0015480 0.0015480 0.0015480
0.0015538 0.0015538 0.0015538
0.0015595 0.0015595 0.0015595
0.0015653 0.0015653 0.0015653
0.0015710 0.0015710 0.0015710
0.0015768 0.0015768 0.0015768
0.0015826 0.0015826 0.0015826
0.0015884 0.0015884 0.0015884
0.0015941 0.0015941 0.0015941
0.0015999 0.0015999 0.0015999
0.0016057 0.0016057 0.0016057
0.0016115 0.0016115 0.0016115
0.0016173 0.0016173 0.0016173
0.0016231 0.0016231 0.0016231
0.0016289 0.0016289 0.0016289
0.0016347 0.0016347 0.0016347
0.0016405 0.0016405 0.0016405
0.0016463 0.0016463 0.0016463
0.0016521 0.0016521 0.0016521
0.0016580 0.0016580 0.0016580
0.0016638 0.0016638 0.0016638
0.0016696 0.0016696 0.0016696
0.0016754 0.0016754 0.0016754
0.0016813 0.0016813 0.0016813
0.0016871 0.0016871 0.0016871
0.0016930 0.0016930 0.0016930
0.0016988 0.0016988 0.0016988
0.0017047 0.0017047 0.0017047
0.0017105 0.0017105 0.0017105
0.0017164 0.0017164 0.0017164
0.0017222 0.0017222 0.0017222
0.0017281 0.0017281 0.0017281
0.0017340 0.0017340 0.0017340
0.0017398 0.0017398 0.0017398
0.0017457 0.0017457 0.0017457
0.0017516 0.0017516 0.0017516
0.0017575 0.0017575 0.0017575
0.0017634 0.0017634 0.0017634
0.0017693 0.0017693 0.0017693
0.0017752 0.0017752 0.0017752
0.0017810 0.0017810 0.0017810
0.0017870 0.0017870 0.0017870
0.0017929 0.0017929 0.0017929
0.0017988 0.0017988 0.0017988
0.0018047 0.0018047 0.0018047
0.0018106 0.0018106 0.0018106
0.0018165 0.0018165 0.0018165
0.0018224 0.0018224 0.0018224
0.0018284 0.0018284 0.0018284
0.0018343 0.0018343 0.0018343
0.0018402 0.0018402 0.0018402
0.0018462 0.0018462 0.0018462
0.0018521 0.0018521 0.0018521
0.0018580 0.0018580 0.0018580
0.0018640 0.0018640 0.0018640
0.0018699 0.0018699 0.0018699
0.0018759 0.0018759 0.0018759
0.0018818 0.0018818 0.0018818
0.0018878 0.0018878 0.0018878
0.0018938 0.0018938 0.0018938
0.0018997 0.0018997 0.0018997
0.0019057 0.0019057 0.0019057
0.0019117 0.0019117 0.0019117
0.0019177 0.0019177 0.0019177
0.0019236 0.0019236 0.0019236
0.0019296 0.0019296 0.0019296
0.0019356 0.0019356 0.0019356
0.0019416 0.0019416 0.0019416
0.0019476 0.0019476 0.0019476
0.0019536 0.0019536 0.0019536
0.0019596 0.0019596 0.0019596
0.0019656 0.0019656 0.0019656
0.0019716 0.0019716 0.0019716
0.0019776 0.0019776 0.0019776
0.0019836 0.0019836 0.0019836
0.0019896 0.0019896 0.0019896
0.0019957 0.0019957 0.0019957
0.0020017 0.0020017 0.0020017
0.0020077 0.0020077 0.0020077
0.0020138 0.0020138 0.0020138
0.0020198 0.0020198 0.0020198
0.0020258 0.0020258 0.0020258
0.0020319 0.0020319 0.0020319
0.0020379 0.0020379 0.0020379
0.0020440 0.0020440 0.0020440
0.0020500 0.0020500 0.0020500
0.0020561 0.0020561 0.0020561
0.0020621 0.0020621 0.0020621
0.0020682 0.0020682 0.0020682
0.0020742 0.0020742 0.0020742
0.0020803 0.0020803 0.0020803
0.0020864 0.0020864 0.0020864
0.0020925 0.0020925 0.0020925
0.0020985 0.0020985 0.0020985
0.0021046 0.0021046 0.0021046
0.0021107 0.0021107 0.0021107
0.0021168 0.0021168 0.0021168
0.0021229 0.0021229 0.0021229
0.0021290 0.0021290 0.0021290
0.0021351 0.0021351 0.0021351
0.0021412 0.0021412 0.0021412
0.0021473 0.0021473 0.0021473
0.0021534 0.0021534 0.0021534
0.0021595 0.0021595 0.0021595
0.0021656 0.0021656 0.0021656
0.0021717 0.0021717 0.0021717
0.0021778 0.0021778 0.0021778
0.0021839 0.0021839 0.0021839
0.0021901 0.0021901 0.0021901
0.0021962 0.0021962 0.0021962
0.0022023 0.0022023 0.0022023
0.0022084 0.0022084 0.0022084
0.0022146 0.0022146 0.0022146
0.0022207 0.0022207 0.0022207
0.0022269 0.0022269 0.0022269
0.0022330 0.0022330 0.0022330
0.0022392 0.0022392 0.0022392
0.0022453 0.0022453 0.0022453
0.0022515 0.0022515 0.0022515
0.0022576 0.0022576 0.0022576
0.0022638 0.0022638 0.0022638
0.0022699 0.0022699 0.0022699
0.0022761 0.0022761 0.0022761
0.0022823 0.0022823 0.0022823
0.0022885 0.0022885 0.0022885
0.0022946 0.0022946 0.0022946
0.0023008 0.0023008 0.0023008
0.0023070 0.0023070 0.0023070
0.0023132 0.0023132 0.0023132
0.0023194 0.0023194 0.0023194
0.0023256 0.0023256 0.0023256
0.0023317 0.0023317 0.0023317
0.0023379 0.0023379 0.0023379
0.0023441 0.0023441 0.0023441
0.0023503 0.0023503 0.0023503
0.0023566 0.0023566 0.0023566
0.0023628 0.0023628 0.0023628
0.0023690 0.0023690 0.0023690
0.0023752 0.0023752 0.0023752
0.0023814 0.0023814 0.0023814
0.0023876 0.0023876 0.0023876
0.0023938 0.0023938 0.0023938
0.0024001 0.0024001 0.0024001
0.0024063 0.0024063 0.0024063
0.0024125 0.0024125 0.0024125
0.0024188 0.0024188 0.0024188
0.0024250 0.0024250 0.0024250
0.0024313 0.0024313 0.0024313
0.0024375 0.0024375 0.0024375
0.0024437 0.0024437 0.0024437
0.0024500 0.0024500 0.0024500
0.0024562 0.0024562 0.0024562
0.0024625 0.0024625 0.0024625
0.0024688 0.0024688 0.0024688
0.0024750 0.0024750 0.0024750
0.0024813 0.0024813 0.0024813
0.0024876 0.0024876 0.0024876
0.0024938 0.0024938 0.0024938
0.0025001 0.0025001 0.0025001
0.0025064 0.0025064 0.0025064
0.0025127 0.0025127 0.0025127
0.0025189 0.0025189 0.0025189
0.0025252 0.0025252 0.0025252
0.0025315 0.0025315 0.0025315
0.0025378 0.0025378 0.0025378
0.0025441 0.0025441 0.0025441
0.0025504 0.0025504 0.0025504
0.0025567 0.0025567 0.0025567
0.0025630 0.0025630 0.0025630
0.0025693 0.0025693 0.0025693
0.0025756 0.0025756 0.0025756
0.0025819 0.0025819 0.0025819
0.0025882 0.0025882 0.0025882
0.0025945 0.0025945 0.0025945
0.0026009 0.0026009 0.0026009
0.0026072 0.0026072 0.0026072
0.0026135 0.0026135 0.0026135
0.0026198 0.0026198 0.0026198
0.0026262 0.0026262 0.0026262
0.0026325 0.0026325 0.0026325
0.0026388 0.0026388 0.0026388
0.0026452 0.0026452 0.0026452
0.0026515 0.0026515 0.0026515
0.0026578 0.0026578 0.0026578
0.0026642 0.0026642 0.0026642
0.0026705 0.0026705 0.0026705
0.0026769 0.0026769 0.0026769
0.0026832 0.0026832 0.0026832
0.0026896 0.0026896 0.0026896
0.0026960 0.0026960 0.0026960
0.0027023 0.0027023 0.0027023
0.0027087 0.0027087 0.0027087
0.0027151 0.0027151 0.0027151
0.0027214 0.0027214 0.0027214
0.0027278 0.0027278 0.0027278
0.0027342 0.0027342 0.0027342
0.0027406 0.0027406 0.0027406
0.0027469 0.0027469 0.0027469
0.0027533 0.0027533 0.0027533
0.0027597 0.0027597 0.0027597
0.0027661 0.0027661 0.0027661
0.0027725 0.0027725 0.0027725
0.0027789 0.0027789 0.0027789
0.0027853 0.0027853 0.0027853
0.0027917 0.0027917 0.0027917
0.0027981 0.0027981 0.0027981
0.0028045 0.0028045 0.0028045
0.0028109 0.0028109 0.0028109
0.0028173 0.0028173 0.0028173
0.0028237 0.0028237 0.0028237
0.0028301 0.0028301 0.0028301
0.0028366 0.0028366 0.0028366
0.0028430 0.0028430 0.0028430
0.0028494 0.0028494 0.0028494
0.0028558 0.0028558 0.0028558
0.0028623 0.0028623 0.0028623
0.0028687 0.0028687 0.0028687
0.0028751 0.0028751 0.0028751
0.0028816 0.0028816 0.0028816
0.0028880 0.0028880 0.0028880
0.0028944 0.0028944 0.0028944
0.0029009 0.0029009 0.0029009
0.0029073 0.0029073 0.0029073
0.0029138 0.0029138 0.0029138
0.0029202 0.0029202 0.0029202
0.0029267 0.0029267 0.0029267
0.0029332 0.0029332 0.0029332
0.0029396 0.0029396 0.0029396
0.0029461 0.0029461 0.0029461
0.0029525 0.0029525 0.0029525
0.0029590 0.0029590 0.0029590
0.0029655 0.0029655 0.0029655
0.0029720 0.0029720 0.0029720
0.0029784 0.0029784 0.0029784
0.0029849 0.0029849 0.0029849
0.0029914 0.0029914 0.0029914
0.0029979 0.0029979 0.0029979
0.0030044 0.0030044 0.0030044
0.0030109 0.0030109 0.0030109
0.0030173 0.0030173 0.0030173
0.0030238 0.0030238 0.0030238
0.0030303 0.0030303 0.0030303
0.0030368 0.0030368 0.0030368
0.0030433 0.0030433 0.0030433
0.0030498 0.0030498 0.0030498
0.0030563 0.0030563 0.0030563
0.0030629 0.0030629 0.0030629
0.0030694 0.0030694 0.0030694
0.0030759 0.0030759 0.0030759
0.0030824 0.0030824 0.0030824
0.0030889 0.0030889 0.0030889
0.0030954 0.0030954 0.0030954
0.0031020 0.0031020 0.0031020
0.0031085 0.0031085 0.0031085
0.0031150 0.0031150 0.0031150
0.0031216 0.0031216 0.0031216
0.0031281 0.0031281 0.0031281
0.0031346 0.0031346 0.0031346
0.0031412 0.0031412 0.0031412
0.0031477 0.0031477 0.0031477
0.0031542 0.0031542 0.0031542
0.0031608 0.0031608 0.0031608
0.0031673 0.0031673 0.0031673
0.0031739 0.0031739 0.0031739
0.0031804 0.0031804 0.0031804
0.0031870 0.0031870 0.0031870
0.0031936 0.0031936 0.0031936
0.0032001 0.0032001 0.0032001
0.0032067 0.0032067 0.0032067
0.0032133 0.0032133 0.0032133
0.0032198 0.0032198 0.0032198
0.0032264 0.0032264 0.0032264
0.0032330 0.0032330 0.0032330
0.0032395 0.0032395 0.0032395
0.0032461 0.0032461 0.0032461
0.0032527 0.0032527 0.0032527
0.0032593 0.0032593 0.0032593
0.0032659 0.0032659 0.0032659
0.0032725 0.0032725 0.0032725
0.0032791 0.0032791 0.0032791
0.0032856 0.0032856 0.0032856
0.0032922 0.0032922 0.0032922
0.0032988 0.0032988 0.0032988
0.0033054 0.0033054 0.0033054
0.0033120 0.0033120 0.0033120
0.0033186 0.0033186 0.0033186
0.0033253 0.0033253 0.0033253
0.0033319 0.0033319 0.0033319
0.0033385 0.0033385 0.0033385
0.0033451 0.0033451 0.0033451
0.0033517 0.0033517 0.0033517
0.0033583 0.0033583 0.0033583
0.0033649 0.0033649 0.0033649
0.0033716 0.0033716 0.0033716
0.0033782 0.0033782 0.0033782
0.0033848 0.0033848 0.0033848
0.0033915 0.0033915 0.0033915
0.0033981 0.0033981 0.0033981
0.0034047 0.0034047 0.0034047
0.0034114 0.0034114 0.0034114
0.0034180 0.0034180 0.0034180
0.0034246 0.0034246 0.0034246
0.0034313 0.0034313 0.0034313
0.0034379 0.0034379 0.0034379
0.0034446 0.0034446 0.0034446
0.0034512 0.0034512 0.0034512
0.0034579 0.0034579 0.0034579
0.0034646 0.0034646 0.0034646
0.0034712 0.0034712 0.0034712
0.0034779 0.0034779 0.0034779
0.0034845 0.0034845 0.0034845
0.0034912 0.0034912 0.0034912
0.0034979 0.0034979 0.0034979
0.0035045 0.0035045 0.0035045
0.0035112 0.0035112 0.0035112
0.0035179 0.0035179 0.0035179
0.0035246 0.0035246 0.0035246
0.0035312 0.0035312 0.0035312
0.0035379 0.0035379 0.0035379
0.0035446 0.0035446 0.0035446
0.0035513 0.0035513 0.0035513
0.0035580 0.0035580 0.0035580
0.0035647 0.0035647 0.0035647
0.0035714 0.0035714 0.0035714
0.0035781 0.0035781 0.0035781
0.0035848 0.0035848 0.0035848
0.0035915 0.0035915 0.0035915
0.0035982 0.0035982 0.0035982
0.0036049 0.0036049 0.0036049
0.0036116 0.0036116 0.0036116
0.0036183 0.0036183 0.0036183
0.0036250 0.0036250 0.0036250
0.0036317 0.0036317 0.0036317
0.0036384 0.0036384 0.0036384
0.0036452 0.0036452 0.0036452
0.0036519 0.0036519 0.0036519
0.0036586 0.0036586 0.0036586
0.0036653 0.0036653 0.0036653
0.0036721 0.0036721 0.0036721
0.0036788 0.0036788 0.0036788
0.0036855 0.0036855 0.0036855
0.0036922 0.0036922 0.0036922
0.0036990 0.0036990 0.0036990
0.0037057 0.0037057 0.0037057
0.0037125 0.0037125 0.0037125
0.0037192 0.0037192 0.0037192
0.0037260 0.0037260 0.0037260
0.0037327 0.0037327 0.0037327
0.0037394 0.0037394 0.0037394
0.0037462 0.0037462 0.0037462
0.0037530 0.0037530 0.0037530
0.0037597 0.0037597 0.0037597
0.0037665 0.0037665 0.0037665
0.0037732 0.0037732 0.0037732
0.0037800 0.0037800 0.0037800
0.0037868 0.0037868 0.0037868
0.0037935 0.0037935 0.0037935
0.0038003 0.0038003 0.0038003
0.0038071 0.0038071 0.0038071
0.0038138 0.0038138 0.0038138
0.0038206 0.0038206 0.0038206
0.0038274 0.0038274 0.0038274
0.0038342 0.0038342 0.0038342
0.0038410 0.0038410 0.0038410
0.0038477 0.0038477 0.0038477
0.0038545 0.0038545 0.0038545
0.0038613 0.0038613 0.0038613
0.0038681 0.0038681 0.0038681
0.0038749 0.0038749 0.0038749
0.0038817 0.0038817 0.0038817
0.0038885 0.0038885 0.0038885
0.0038953 0.0038953 0.0038953
0.0039021 0.0039021 0.0039021
0.0039089 0.0039089 0.0039089
0.0039157 0.0039157 0.0039157
0.0039225 0.0039225 0.0039225
0.0039293 0.0039293 0.0039293
0.0039362 0.0039362 0.0039362
0.0039430 0.0039430 0.0039430
0.0039498 0.0039498 0.0039498
0.0039566 0.0039566 0.0039566
0.0039634 0.0039634 0.0039634
0.0039702 0.0039702 0.0039702
0.0039771 0.0039771 0.0039771
0.0039839 0.0039839 0.0039839
0.0039907 0.0039907 0.0039907
0.0039976 0.0039976 0.0039976
0.0040044 0.0040044 0.0040044
0.0040112 0.0040112 0.0040112
0.0040181 0.0040181 0.0040181
0.0040249 0.0040249 0.0040249
0.0040318 0.0040318 0.0040318
0.0040386 0.0040386 0.0040386
0.0040455 0.0040455 0.0040455
0.0040523 0.0040523 0.0040523
0.0040592 0.0040592 0.0040592
0.0040660 0.0040660 0.0040660
0.0040729 0.0040729 0.0040729
0.0040797 0.0040797 0.0040797
0.0040866 0.0040866 0.0040866
0.0040934 0.0040934 0.0040934
0.0041003 0.0041003 0.0041003
0.0041072 0.0041072 0.0041072
0.0041140 0.0041140 0.0041140
0.0041209 0.0041209 0.0041209
0.0041278 0.0041278 0.0041278
0.0041347 0.0041347 0.0041347
0.0041415 0.0041415 0.0041415
0.0041484 0.0041484 0.0041484
0.0041553 0.0041553 0.0041553
0.0041622 0.0041622 0.0041622
0.0041691 0.0041691 0.0041691
0.0041759 0.0041759 0.0041759
0.0041828 0.0041828 0.0041828
0.0041897 0.0041897 0.0041897
0.0041966 0.0041966 0.0041966
0.0042035 0.0042035 0.0042035
0.0042104 0.0042104 0.0042104
0.0042173 0.0042173 0.0042173
0.0042242 0.0042242 0.0042242
0.0042311 0.0042311 0.0042311
0.0042380 0.0042380 0.0042380
0.0042449 0.0042449 0.0042449
0.0042518 0.0042518 0.0042518
0.0042587 0.0042587 0.0042587
0.0042657 0.0042657 0.0042657
0.0042726 0.0042726 0.0042726
0.0042795 0.0042795 0.0042795
0.0042864 0.0042864 0.0042864
0.0042933 0.0042933 0.0042933
0.0043003 0.0043003 0.0043003
0.0043072 0.0043072 0.0043072
0.0043141 0.0043141 0.0043141
0.0043210 0.0043210 0.0043210
0.0043280 0.0043280 0.0043280
0.0043349 0.0043349 0.0043349
0.0043418 0.0043418 0.0043418
0.0043488 0.0043488 0.0043488
0.0043557 0.0043557 0.0043557
0.0043627 0.0043627 0.0043627
0.0043696 0.0043696 0.0043696
0.0043766 0.0043766 0.0043766
0.0043835 0.0043835 0.0043835
0.0043905 0.0043905 0.0043905
0.0043974 0.0043974 0.0043974
0.0044044 0.0044044 0.0044044
0.0044113 0.0044113 0.0044113
0.0044183 0.0044183 0.0044183
0.0044252 0.0044252 0.0044252
0.0044322 0.0044322 0.0044322
0.0044392 0.0044392 0.0044392
0.0044461 0.0044461 0.0044461
0.0044531 0.0044531 0.0044531
0.0044601 0.0044601 0.0044601
0.0044670 0.0044670 0.0044670
0.0044740 0.0044740 0.0044740
0.0044810 0.0044810 0.0044810
0.0044880 0.0044880 0.0044880
0.0044949 0.0044949 0.0044949
0.0045019 0.0045019 0.0045019
0.0045089 0.0045089 0.0045089
0.0045159 0.0045159 0.0045159
0.0045229 0.0045229 0.0045229
0.0045299 0.0045299 0.0045299
0.0045369 0.0045369 0.0045369
0.0045439 0.0045439 0.0045439
0.0045508 0.0045508 0.0045508
0.0045578 0.0045578 0.0045578
0.0045648 0.0045648 0.0045648
