Workspace/sRGB to AdobeRGB.cube
TITLE "Generated by V7"
LUT_3D_SIZE 6
#IMAGEPROFILE
0.0000000 0.0000000 0.0000000
0.1717317 0.0000000 0.0000000
0.3434633 0.0000000 0.0000000
0.5151950 0.0000000 0.0000000
0.6869267 0.0000000 0.0000000
0.8586584 0.0000000 0.0000000
0.1130107 0.2000000 0.0469134
0.2000000 0.2000000 0.0469134
0.3566896 0.2000000 0.0469134
0.5234349 0.2000000 0.0469134
0.6927871 0.2000000 0.0469134
0.8631509 0.2000000 0.0469134
0.2260213 0.4000000 0.0938267
0.2755560 0.4000000 0.0938267
0.4000000 0.4000000 0.0938267
0.5518475 0.4000000 0.0938267
0.7133793 0.4000000 0.0938267
0.8790739 0.4000000 0.0938267
0.3390320 0.6000000 0.1407401
0.3716486 0.6000000 0.1407401
0.4676409 0.6000000 0.1407401
0.6000000 0.6000000 0.1407401
0.7495247 0.6000000 0.1407401
0.9075113 0.6000000 0.1407401
0.4520427 0.8000000 0.1876534
0.4757314 0.8000000 0.1876534
0.5511120 0.8000000 0.1876534
0.6644200 0.8000000 0.1876534
0.8000000 0.8000000 0.1876534
0.9481672 0.8000000 0.1876534
0.5650534 1.0000000 0.2345668
0.5833912 1.0000000 0.2345668
0.6442376 1.0000000 0.2345668
0.7411050 1.0000000 0.2345668
0.8626861 1.0000000 0.2345668
1.0000000 1.0000000 0.2345668
0.0000000 0.0000000 0.1962143
0.1717317 0.0000000 0.1962143
0.3434633 0.0000000 0.1962143
0.5151950 0.0000000 0.1962143
0.6869267 0.0000000 0.1962143
0.8586584 0.0000000 0.1962143
0.1130107 0.2000000 0.2000000
0.2000000 0.2000000 0.2000000
0.3566896 0.2000000 0.2000000
0.5234349 0.2000000 0.2000000
0.6927871 0.2000000 0.2000000
0.8631509 0.2000000 0.2000000
0.2260213 0.4000000 0.2129493
0.2755560 0.4000000 0.2129493
0.4000000 0.4000000 0.2129493
0.5518475 0.4000000 0.2129493
0.7133793 0.4000000 0.2129493
0.8790739 0.4000000 0.2129493
0.3390320 0.6000000 0.2345902
0.3716486 0.6000000 0.2345902
0.4676409 0.6000000 0.2345902
0.6000000 0.6000000 0.2345902
0.7495247 0.6000000 0.2345902
0.9075113 0.6000000 0.2345902
0.4520427 0.8000000 0.2630952
0.4757314 0.8000000 0.2630952
0.5511120 0.8000000 0.2630952
0.6644200 0.8000000 0.2630952
0.8000000 0.8000000 0.2630952
0.9481672 0.8000000 0.2630952
0.5650534 1.0000000 0.2965602
0.5833912 1.0000000 0.2965602
0.6442376 1.0000000 0.2965602
0.7411050 1.0000000 0.2965602
0.8626861 1.0000000 0.2965602
1.0000000 1.0000000 0.2965602
0.0000000 0.0000000 0.3924286
0.1717317 0.0000000 0.3924286
0.3434633 0.0000000 0.3924286
0.5151950 0.0000000 0.3924286
0.6869267 0.0000000 0.3924286
0.8586584 0.0000000 0.3924286
0.1130107 0.2000000 0.3940913
0.2000000 0.2000000 0.3940913
0.3566896 0.2000000 0.3940913
0.5234349 0.2000000 0.3940913
0.6927871 0.2000000 0.3940913
0.8631509 0.2000000 0.3940913
0.2260213 0.4000000 0.4000000
0.2755560 0.4000000 0.4000000
0.4000000 0.4000000 0.4000000
0.5518475 0.4000000 0.4000000
0.7133793 0.4000000 0.4000000
0.8790739 0.4000000 0.4000000
0.3390320 0.6000000 0.4106105
0.3716486 0.6000000 0.4106105
0.4676409 0.6000000 0.4106105
0.6000000 0.6000000 0.4106105
0.7495247 0.6000000 0.4106105
0.9075113 0.6000000 0.4106105
0.4520427 0.8000000 0.4258986
0.4757314 0.8000000 0.4258986
0.5511120 0.8000000 0.4258986
0.6644200 0.8000000 0.4258986
0.8000000 0.8000000 0.4258986
0.9481672 0.8000000 0.4258986
0.5650534 1.0000000 0.4455705
0.5833912 1.0000000 0.4455705
0.6442376 1.0000000 0.4455705
0.7411050 1.0000000 0.4455705
0.8626861 1.0000000 0.4455705
1.0000000 1.0000000 0.4455705
0.0000000 0.0000000 0.5886429
0.1717317 0.0000000 0.5886429
0.3434633 0.0000000 0.5886429
0.5151950 0.0000000 0.5886429
0.6869267 0.0000000 0.5886429
0.8586584 0.0000000 0.5886429
0.1130107 0.2000000 0.5896665
0.2000000 0.2000000 0.5896665
0.3566896 0.2000000 0.5896665
0.5234349 0.2000000 0.5896665
0.6927871 0.2000000 0.5896665
0.8631509 0.2000000 0.5896665
0.2260213 0.4000000 0.5933289
0.2755560 0.4000000 0.5933289
0.4000000 0.4000000 0.5933289
0.5518475 0.4000000 0.5933289
0.7133793 0.4000000 0.5933289
0.8790739 0.4000000 0.5933289
0.3390320 0.6000000 0.6000000
0.3716486 0.6000000 0.6000000
0.4676409 0.6000000 0.6000000
0.6000000 0.6000000 0.6000000
0.7495247 0.6000000 0.6000000
0.9075113 0.6000000 0.6000000
0.4520427 0.8000000 0.6098188
0.4757314 0.8000000 0.6098188
0.5511120 0.8000000 0.6098188
0.6644200 0.8000000 0.6098188
0.8000000 0.8000000 0.6098188
0.9481672 0.8000000 0.6098188
0.5650534 1.0000000 0.6227955
0.5833912 1.0000000 0.6227955
0.6442376 1.0000000 0.6227955
0.7411050 1.0000000 0.6227955
0.8626861 1.0000000 0.6227955
1.0000000 1.0000000 0.6227955
0.0000000 0.0000000 0.7848571
0.1717317 0.0000000 0.7848571
0.3434633 0.0000000 0.7848571
0.5151950 0.0000000 0.7848571
0.6869267 0.0000000 0.7848571
0.8586584 0.0000000 0.7848571
0.1130107 0.2000000 0.7855823
0.2000000 0.2000000 0.7855823
0.3566896 0.2000000 0.7855823
0.5234349 0.2000000 0.7855823
0.6927871 0.2000000 0.7855823
0.8631509 0.2000000 0.7855823
0.2260213 0.4000000 0.7881825
0.2755560 0.4000000 0.7881825
0.4000000 0.4000000 0.7881825
0.5518475 0.4000000 0.7881825
0.7133793 0.4000000 0.7881825
0.8790739 0.4000000 0.7881825
0.3390320 0.6000000 0.7929420
0.3716486 0.6000000 0.7929420
0.4676409 0.6000000 0.7929420
0.6000000 0.6000000 0.7929420
0.7495247 0.6000000 0.7929420
0.9075113 0.6000000 0.7929420
0.4520427 0.8000000 0.8000000
0.4757314 0.8000000 0.8000000
0.5511120 0.8000000 0.8000000
0.6644200 0.8000000 0.8000000
0.8000000 0.8000000 0.8000000
0.9481672 0.8000000 0.8000000
0.5650534 1.0000000 0.8094222
0.5833912 1.0000000 0.8094222
0.6442376 1.0000000 0.8094222
0.7411050 1.0000000 0.8094222
0.8626861 1.0000000 0.8094222
1.0000000 1.0000000 0.8094222
0.0000000 0.0000000 0.9810714
0.1717317 0.0000000 0.9810714
0.3434633 0.0000000 0.9810714
0.5151950 0.0000000 0.9810714
0.6869267 0.0000000 0.9810714
0.8586584 0.0000000 0.9810714
0.1130107 0.2000000 0.9816264
0.2000000 0.2000000 0.9816264
0.3566896 0.2000000 0.9816264
0.5234349 0.2000000 0.9816264
0.6927871 0.2000000 0.9816264
0.8631509 0.2000000 0.9816264
0.2260213 0.4000000 0.9836181
0.2755560 0.4000000 0.9836181
0.4000000 0.4000000 0.9836181
0.5518475 0.4000000 0.9836181
0.7133793 0.4000000 0.9836181
0.8790739 0.4000000 0.9836181
0.3390320 0.6000000 0.9872717
0.3716486 0.6000000 0.9872717
0.4676409 0.6000000 0.9872717
0.6000000 0.6000000 0.9872717
0.7495247 0.6000000 0.9872717
0.9075113 0.6000000 0.9872717
0.4520427 0.8000000 0.9927084
0.4757314 0.8000000 0.9927084
0.5511120 0.8000000 0.9927084
0.6644200 0.8000000 0.9927084
0.8000000 0.8000000 0.9927084
0.9481672 0.8000000 0.9927084
0.5650534 1.0000000 1.0000000
0.5833912 1.0000000 1.0000000
0.6442376 1.0000000 1.0000000
0.7411050 1.0000000 1.0000000
0.8626861 1.0000000 1.0000000
1.0000000 1.0000000 1.0000000
