Workspace/sRGB to AdobeRGB.cube
TITLE "Generated by V7"
LUT_3D_SIZE 16
#IMAGEPROFILE
0.0000000 0.0000000 0.0000000
0.0572439 0.0000000 0.0000000
0.1144878 0.0000000 0.0000000
0.1717317 0.0000000 0.0000000
0.2289756 0.0000000 0.0000000
0.2862195 0.0000000 0.0000000
0.3434633 0.0000000 0.0000000
0.4007072 0.0000000 0.0000000
0.4579511 0.0000000 0.0000000
0.5151950 0.0000000 0.0000000
0.5724389 0.0000000 0.0000000
0.6296828 0.0000000 0.0000000
0.6869267 0.0000000 0.0000000
0.7441706 0.0000000 0.0000000
0.8014145 0.0000000 0.0000000
0.8586584 0.0000000 0.0000000
0.0376702 0.0666667 0.0156378
0.0666667 0.0666667 0.0156378
0.1188965 0.0666667 0.0156378
0.1744783 0.0666667 0.0156378
0.2309290 0.0666667 0.0156378
0.2877170 0.0666667 0.0156378
0.3446678 0.0666667 0.0156378
0.4017089 0.0666667 0.0156378
0.4588048 0.0666667 0.0156378
0.5159364 0.0666667 0.0156378
0.5730923 0.0666667 0.0156378
0.6302657 0.0666667 0.0156378
0.6874518 0.0666667 0.0156378
0.7446477 0.0666667 0.0156378
0.8018510 0.0666667 0.0156378
0.8590602 0.0666667 0.0156378
0.0753404 0.1333333 0.0312756
0.0918520 0.1333333 0.0312756
0.1333333 0.1333333 0.0312756
0.1839492 0.1333333 0.0312756
0.2377931 0.1333333 0.0312756
0.2930246 0.1333333 0.0312756
0.3489566 0.1333333 0.0312756
0.4052853 0.1333333 0.0312756
0.4618581 0.1333333 0.0312756
0.5185909 0.1333333 0.0312756
0.5754339 0.1333333 0.0312756
0.6323557 0.1333333 0.0312756
0.6893357 0.1333333 0.0312756
0.7463597 0.1333333 0.0312756
0.8034178 0.1333333 0.0312756
0.8605029 0.1333333 0.0312756
0.1130107 0.2000000 0.0469134
0.1238829 0.2000000 0.0469134
0.1558803 0.2000000 0.0469134
0.2000000 0.2000000 0.0469134
0.2498416 0.2000000 0.0469134
0.3025038 0.2000000 0.0469134
0.3566896 0.2000000 0.0469134
0.4117709 0.2000000 0.0469134
0.4674156 0.2000000 0.0469134
0.5234349 0.2000000 0.0469134
0.5797144 0.2000000 0.0469134
0.6361813 0.2000000 0.0469134
0.6927871 0.2000000 0.0469134
0.7494986 0.2000000 0.0469134
0.8062923 0.2000000 0.0469134
0.8631509 0.2000000 0.0469134
0.1506809 0.2666667 0.0625511
0.1585771 0.2666667 0.0625511
0.1837040 0.2666667 0.0625511
0.2214733 0.2666667 0.0625511
0.2666667 0.2666667 0.0625511
0.3160557 0.2666667 0.0625511
0.3678983 0.2666667 0.0625511
0.4212524 0.2666667 0.0625511
0.4755862 0.2666667 0.0625511
0.5305840 0.2666667 0.0625511
0.5860492 0.2666667 0.0625511
0.6418543 0.2666667 0.0625511
0.6979132 0.2666667 0.0625511
0.7541662 0.2666667 0.0625511
0.8105705 0.2666667 0.0625511
0.8670949 0.2666667 0.0625511
0.1883511 0.3333333 0.0781889
0.1944637 0.3333333 0.0781889
0.2147459 0.3333333 0.0781889
0.2470350 0.3333333 0.0781889
0.2875620 0.3333333 0.0781889
0.3333333 0.3333333 0.0781889
0.3824260 0.3333333 0.0781889
0.4336742 0.3333333 0.0781889
0.4863686 0.3333333 0.0781889
0.5400665 0.3333333 0.0781889
0.5944827 0.3333333 0.0781889
0.6494275 0.3333333 0.0781889
0.7047705 0.3333333 0.0781889
0.7604200 0.3333333 0.0781889
0.8163100 0.3333333 0.0781889
0.8723915 0.3333333 0.0781889
0.2260213 0.4000000 0.0938267
0.2309637 0.4000000 0.0938267
0.2477657 0.4000000 0.0938267
0.2755560 0.4000000 0.0938267
0.3117606 0.4000000 0.0938267
0.3538683 0.4000000 0.0938267
0.4000000 0.4000000 0.0938267
0.4488836 0.4000000 0.0938267
0.4996831 0.4000000 0.0938267
0.5518475 0.4000000 0.0938267
0.6050075 0.4000000 0.0938267
0.6589105 0.4000000 0.0938267
0.7133793 0.4000000 0.0938267
0.7682873 0.4000000 0.0938267
0.8235418 0.4000000 0.0938267
0.8790739 0.4000000 0.0938267
0.2636916 0.4666667 0.1094645
0.2678145 0.4666667 0.1094645
0.2820436 0.4666667 0.1094645
0.3061966 0.4666667 0.1094645
0.3385673 0.4666667 0.1094645
0.3771647 0.4666667 0.1094645
0.4202890 0.4666667 0.1094645
0.4666667 0.4666667 0.1094645
0.5153950 0.4666667 0.1094645
0.5658447 0.4666667 0.1094645
0.6175764 0.4666667 0.1094645
0.6702795 0.4666667 0.1094645
0.7237317 0.4666667 0.1094645
0.7777706 0.4666667 0.1094645
0.8322758 0.4666667 0.1094645
0.8871569 0.4666667 0.1094645
0.3013618 0.5333333 0.1251023
0.3048826 0.5333333 0.1251023
0.3171543 0.5333333 0.1251023
0.3383645 0.5333333 0.1251023
0.3674080 0.5333333 0.1251023
0.4027567 0.5333333 0.1251023
0.4429467 0.5333333 0.1251023
0.4867771 0.5333333 0.1251023
0.5333333 0.5333333 0.1251023
0.5819418 0.5333333 0.1251023
0.6321115 0.5333333 0.1251023
0.6834843 0.5333333 0.1251023
0.7357967 0.5333333 0.1251023
0.7888527 0.5333333 0.1251023
0.8425048 0.5333333 0.1251023
0.8966404 0.5333333 0.1251023
0.3390320 0.6000000 0.1407401
0.3420936 0.6000000 0.1407401
0.3528374 0.6000000 0.1407401
0.3716486 0.6000000 0.1407401
0.3978316 0.6000000 0.1407401
0.4302360 0.6000000 0.1407401
0.4676409 0.6000000 0.1407401
0.5089597 0.6000000 0.1407401
0.5533083 0.6000000 0.1407401
0.6000000 0.6000000 0.1407401
0.6485131 0.6000000 0.1407401
0.6984537 0.6000000 0.1407401
0.7495247 0.6000000 0.1407401
0.8015001 0.6000000 0.1407401
0.8542069 0.6000000 0.1407401
0.9075113 0.6000000 0.1407401
0.3767022 0.6666667 0.1563778
0.3794032 0.6666667 0.1563778
0.3889274 0.6666667 0.1563778
0.4057627 0.6666667 0.1563778
0.4294917 0.6666667 0.1563778
0.4592600 0.6666667 0.1563778
0.4940700 0.6666667 0.1563778
0.5329665 0.6666667 0.1563778
0.5751241 0.6666667 0.1563778
0.6198686 0.6666667 0.1563778
0.6666667 0.6666667 0.1563778
0.7151021 0.6666667 0.1563778
0.7648520 0.6666667 0.1563778
0.8156659 0.6666667 0.1563778
0.8673484 0.6666667 0.1563778
0.9197458 0.6666667 0.1563778
0.4143725 0.7333333 0.1720156
0.4167835 0.7333333 0.1720156
0.4253155 0.7333333 0.1720156
0.4405051 0.7333333 0.1720156
0.4621251 0.7333333 0.1720156
0.4895478 0.7333333 0.1720156
0.5219693 0.7333333 0.1720156
0.5585668 0.7333333 0.1720156
0.5985889 0.7333333 0.1720156
0.6413929 0.7333333 0.1720156
0.6864497 0.7333333 0.1720156
0.7333333 0.7333333 0.1720156
0.7817043 0.7333333 0.1720156
0.8312930 0.7333333 0.1720156
0.8818855 0.7333333 0.1720156
0.9333112 0.7333333 0.1720156
0.4520427 0.8000000 0.1876534
0.4542160 0.8000000 0.1876534
0.4619274 0.8000000 0.1876534
0.4757314 0.8000000 0.1876534
0.4955314 0.8000000 0.1876534
0.5208722 0.8000000 0.1876534
0.5511120 0.8000000 0.1876534
0.5855521 0.8000000 0.1876534
0.6235212 0.8000000 0.1876534
0.6644200 0.8000000 0.1876534
0.7077366 0.8000000 0.1876534
0.7530459 0.8000000 0.1876534
0.8000000 0.8000000 0.1876534
0.8483166 0.8000000 0.1876534
0.8977673 0.8000000 0.1876534
0.9481672 0.8000000 0.1876534
0.4897129 0.8666667 0.2032912
0.4916881 0.8666667 0.2032912
0.4987110 0.8666667 0.2032912
0.5113366 0.8666667 0.2032912
0.5295580 0.8666667 0.2032912
0.5530509 0.8666667 0.2032912
0.5813067 0.8666667 0.2032912
0.6137381 0.8666667 0.2032912
0.6497536 0.8666667 0.2032912
0.6888039 0.8666667 0.2032912
0.7304032 0.8666667 0.2032912
0.7741361 0.8666667 0.2032912
0.8196536 0.8666667 0.2032912
0.8666667 0.8666667 0.2032912
0.9149368 0.8666667 0.2032912
0.9642680 0.8666667 0.2032912
0.5273831 0.9333333 0.2189290
0.5291909 0.9333333 0.2189290
0.5356290 0.9333333 0.2189290
0.5472427 0.9333333 0.2189290
0.5640873 0.9333333 0.2189290
0.5859375 0.9333333 0.2189290
0.6123931 0.9333333 0.2189290
0.6429640 0.9333333 0.2189290
0.6771345 0.9333333 0.2189290
0.7144076 0.9333333 0.2189290
0.7543294 0.9333333 0.2189290
0.7965007 0.9333333 0.2189290
0.8405779 0.9333333 0.2189290
0.8862702 0.9333333 0.2189290
0.9333333 0.9333333 0.2189290
0.9815633 0.9333333 0.2189290
0.5650534 1.0000000 0.2345668
0.5667179 1.0000000 0.2345668
0.5726539 1.0000000 0.2345668
0.5833912 1.0000000 0.2345668
0.5990280 1.0000000 0.2345668
0.6194143 1.0000000 0.2345668
0.6442376 1.0000000 0.2345668
0.6730910 1.0000000 0.2345668
0.7055286 1.0000000 0.2345668
0.7411050 1.0000000 0.2345668
0.7794015 1.0000000 0.2345668
0.8200396 1.0000000 0.2345668
0.8626861 1.0000000 0.2345668
0.9070529 1.0000000 0.2345668
0.9528938 1.0000000 0.2345668
1.0000000 1.0000000 0.2345668
0.0000000 0.0000000 0.0654048
0.0572439 0.0000000 0.0654048
0.1144878 0.0000000 0.0654048
0.1717317 0.0000000 0.0654048
0.2289756 0.0000000 0.0654048
0.2862195 0.0000000 0.0654048
0.3434633 0.0000000 0.0654048
0.4007072 0.0000000 0.0654048
0.4579511 0.0000000 0.0654048
0.5151950 0.0000000 0.0654048
0.5724389 0.0000000 0.0654048
0.6296828 0.0000000 0.0654048
0.6869267 0.0000000 0.0654048
0.7441706 0.0000000 0.0654048
0.8014145 0.0000000 0.0654048
0.8586584 0.0000000 0.0654048
0.0376702 0.0666667 0.0666667
0.0666667 0.0666667 0.0666667
0.1188965 0.0666667 0.0666667
0.1744783 0.0666667 0.0666667
0.2309290 0.0666667 0.0666667
0.2877170 0.0666667 0.0666667
0.3446678 0.0666667 0.0666667
0.4017089 0.0666667 0.0666667
0.4588048 0.0666667 0.0666667
0.5159364 0.0666667 0.0666667
0.5730923 0.0666667 0.0666667
0.6302657 0.0666667 0.0666667
0.6874518 0.0666667 0.0666667
0.7446477 0.0666667 0.0666667
0.8018510 0.0666667 0.0666667
0.8590602 0.0666667 0.0666667
0.0753404 0.1333333 0.0709831
0.0918520 0.1333333 0.0709831
0.1333333 0.1333333 0.0709831
0.1839492 0.1333333 0.0709831
0.2377931 0.1333333 0.0709831
0.2930246 0.1333333 0.0709831
0.3489566 0.1333333 0.0709831
0.4052853 0.1333333 0.0709831
0.4618581 0.1333333 0.0709831
0.5185909 0.1333333 0.0709831
0.5754339 0.1333333 0.0709831
0.6323557 0.1333333 0.0709831
0.6893357 0.1333333 0.0709831
0.7463597 0.1333333 0.0709831
0.8034178 0.1333333 0.0709831
0.8605029 0.1333333 0.0709831
0.1130107 0.2000000 0.0781967
0.1238829 0.2000000 0.0781967
0.1558803 0.2000000 0.0781967
0.2000000 0.2000000 0.0781967
0.2498416 0.2000000 0.0781967
0.3025038 0.2000000 0.0781967
0.3566896 0.2000000 0.0781967
0.4117709 0.2000000 0.0781967
0.4674156 0.2000000 0.0781967
0.5234349 0.2000000 0.0781967
0.5797144 0.2000000 0.0781967
0.6361813 0.2000000 0.0781967
0.6927871 0.2000000 0.0781967
0.7494986 0.2000000 0.0781967
0.8062923 0.2000000 0.0781967
0.8631509 0.2000000 0.0781967
0.1506809 0.2666667 0.0876984
0.1585771 0.2666667 0.0876984
0.1837040 0.2666667 0.0876984
0.2214733 0.2666667 0.0876984
0.2666667 0.2666667 0.0876984
0.3160557 0.2666667 0.0876984
0.3678983 0.2666667 0.0876984
0.4212524 0.2666667 0.0876984
0.4755862 0.2666667 0.0876984
0.5305840 0.2666667 0.0876984
0.5860492 0.2666667 0.0876984
0.6418543 0.2666667 0.0876984
0.6979132 0.2666667 0.0876984
0.7541662 0.2666667 0.0876984
0.8105705 0.2666667 0.0876984
0.8670949 0.2666667 0.0876984
0.1883511 0.3333333 0.0988534
0.1944637 0.3333333 0.0988534
0.2147459 0.3333333 0.0988534
0.2470350 0.3333333 0.0988534
0.2875620 0.3333333 0.0988534
0.3333333 0.3333333 0.0988534
0.3824260 0.3333333 0.0988534
0.4336742 0.3333333 0.0988534
0.4863686 0.3333333 0.0988534
0.5400665 0.3333333 0.0988534
0.5944827 0.3333333 0.0988534
0.6494275 0.3333333 0.0988534
0.7047705 0.3333333 0.0988534
0.7604200 0.3333333 0.0988534
0.8163100 0.3333333 0.0988534
0.8723915 0.3333333 0.0988534
0.2260213 0.4000000 0.1111628
0.2309637 0.4000000 0.1111628
0.2477657 0.4000000 0.1111628
0.2755560 0.4000000 0.1111628
0.3117606 0.4000000 0.1111628
0.3538683 0.4000000 0.1111628
0.4000000 0.4000000 0.1111628
0.4488836 0.4000000 0.1111628
0.4996831 0.4000000 0.1111628
0.5518475 0.4000000 0.1111628
0.6050075 0.4000000 0.1111628
0.6589105 0.4000000 0.1111628
0.7133793 0.4000000 0.1111628
0.7682873 0.4000000 0.1111628
0.8235418 0.4000000 0.1111628
0.8790739 0.4000000 0.1111628
0.2636916 0.4666667 0.1242761
0.2678145 0.4666667 0.1242761
0.2820436 0.4666667 0.1242761
0.3061966 0.4666667 0.1242761
0.3385673 0.4666667 0.1242761
0.3771647 0.4666667 0.1242761
0.4202890 0.4666667 0.1242761
0.4666667 0.4666667 0.1242761
0.5153950 0.4666667 0.1242761
0.5658447 0.4666667 0.1242761
0.6175764 0.4666667 0.1242761
0.6702795 0.4666667 0.1242761
0.7237317 0.4666667 0.1242761
0.7777706 0.4666667 0.1242761
0.8322758 0.4666667 0.1242761
0.8871569 0.4666667 0.1242761
0.3013618 0.5333333 0.1379566
0.3048826 0.5333333 0.1379566
0.3171543 0.5333333 0.1379566
0.3383645 0.5333333 0.1379566
0.3674080 0.5333333 0.1379566
0.4027567 0.5333333 0.1379566
0.4429467 0.5333333 0.1379566
0.4867771 0.5333333 0.1379566
0.5333333 0.5333333 0.1379566
0.5819418 0.5333333 0.1379566
0.6321115 0.5333333 0.1379566
0.6834843 0.5333333 0.1379566
0.7357967 0.5333333 0.1379566
0.7888527 0.5333333 0.1379566
0.8425048 0.5333333 0.1379566
0.8966404 0.5333333 0.1379566
0.3390320 0.6000000 0.1520450
0.3420936 0.6000000 0.1520450
0.3528374 0.6000000 0.1520450
0.3716486 0.6000000 0.1520450
0.3978316 0.6000000 0.1520450
0.4302360 0.6000000 0.1520450
0.4676409 0.6000000 0.1520450
0.5089597 0.6000000 0.1520450
0.5533083 0.6000000 0.1520450
0.6000000 0.6000000 0.1520450
0.6485131 0.6000000 0.1520450
0.6984537 0.6000000 0.1520450
0.7495247 0.6000000 0.1520450
0.8015001 0.6000000 0.1520450
0.8542069 0.6000000 0.1520450
0.9075113 0.6000000 0.1520450
0.3767022 0.6666667 0.1664332
0.3794032 0.6666667 0.1664332
0.3889274 0.6666667 0.1664332
0.4057627 0.6666667 0.1664332
0.4294917 0.6666667 0.1664332
0.4592600 0.6666667 0.1664332
0.4940700 0.6666667 0.1664332
0.5329665 0.6666667 0.1664332
0.5751241 0.6666667 0.1664332
0.6198686 0.6666667 0.1664332
0.6666667 0.6666667 0.1664332
0.7151021 0.6666667 0.1664332
0.7648520 0.6666667 0.1664332
0.8156659 0.6666667 0.1664332
0.8673484 0.6666667 0.1664332
0.9197458 0.6666667 0.1664332
0.4143725 0.7333333 0.1810463
0.4167835 0.7333333 0.1810463
0.4253155 0.7333333 0.1810463
0.4405051 0.7333333 0.1810463
0.4621251 0.7333333 0.1810463
0.4895478 0.7333333 0.1810463
0.5219693 0.7333333 0.1810463
0.5585668 0.7333333 0.1810463
0.5985889 0.7333333 0.1810463
0.6413929 0.7333333 0.1810463
0.6864497 0.7333333 0.1810463
0.7333333 0.7333333 0.1810463
0.7817043 0.7333333 0.1810463
0.8312930 0.7333333 0.1810463
0.8818855 0.7333333 0.1810463
0.9333112 0.7333333 0.1810463
0.4520427 0.8000000 0.1958314
0.4542160 0.8000000 0.1958314
0.4619274 0.8000000 0.1958314
0.4757314 0.8000000 0.1958314
0.4955314 0.8000000 0.1958314
0.5208722 0.8000000 0.1958314
0.5511120 0.8000000 0.1958314
0.5855521 0.8000000 0.1958314
0.6235212 0.8000000 0.1958314
0.6644200 0.8000000 0.1958314
0.7077366 0.8000000 0.1958314
0.7530459 0.8000000 0.1958314
0.8000000 0.8000000 0.1958314
0.8483166 0.8000000 0.1958314
0.8977673 0.8000000 0.1958314
0.9481672 0.8000000 0.1958314
0.4897129 0.8666667 0.2107504
0.4916881 0.8666667 0.2107504
0.4987110 0.8666667 0.2107504
0.5113366 0.8666667 0.2107504
0.5295580 0.8666667 0.2107504
0.5530509 0.8666667 0.2107504
0.5813067 0.8666667 0.2107504
0.6137381 0.8666667 0.2107504
0.6497536 0.8666667 0.2107504
0.6888039 0.8666667 0.2107504
0.7304032 0.8666667 0.2107504
0.7741361 0.8666667 0.2107504
0.8196536 0.8666667 0.2107504
0.8666667 0.8666667 0.2107504
0.9149368 0.8666667 0.2107504
0.9642680 0.8666667 0.2107504
0.5273831 0.9333333 0.2257754
0.5291909 0.9333333 0.2257754
0.5356290 0.9333333 0.2257754
0.5472427 0.9333333 0.2257754
0.5640873 0.9333333 0.2257754
0.5859375 0.9333333 0.2257754
0.6123931 0.9333333 0.2257754
0.6429640 0.9333333 0.2257754
0.6771345 0.9333333 0.2257754
0.7144076 0.9333333 0.2257754
0.7543294 0.9333333 0.2257754
0.7965007 0.9333333 0.2257754
0.8405779 0.9333333 0.2257754
0.8862702 0.9333333 0.2257754
0.9333333 0.9333333 0.2257754
0.9815633 0.9333333 0.2257754
0.5650534 1.0000000 0.2408854
0.5667179 1.0000000 0.2408854
0.5726539 1.0000000 0.2408854
0.5833912 1.0000000 0.2408854
0.5990280 1.0000000 0.2408854
0.6194143 1.0000000 0.2408854
0.6442376 1.0000000 0.2408854
0.6730910 1.0000000 0.2408854
0.7055286 1.0000000 0.2408854
0.7411050 1.0000000 0.2408854
0.7794015 1.0000000 0.2408854
0.8200396 1.0000000 0.2408854
0.8626861 1.0000000 0.2408854
0.9070529 1.0000000 0.2408854
0.9528938 1.0000000 0.2408854
1.0000000 1.0000000 0.2408854
0.0000000 0.0000000 0.1308095
0.0572439 0.0000000 0.1308095
0.1144878 0.0000000 0.1308095
0.1717317 0.0000000 0.1308095
0.2289756 0.0000000 0.1308095
0.2862195 0.0000000 0.1308095
0.3434633 0.0000000 0.1308095
0.4007072 0.0000000 0.1308095
0.4579511 0.0000000 0.1308095
0.5151950 0.0000000 0.1308095
0.5724389 0.0000000 0.1308095
0.6296828 0.0000000 0.1308095
0.6869267 0.0000000 0.1308095
0.7441706 0.0000000 0.1308095
0.8014145 0.0000000 0.1308095
0.8586584 0.0000000 0.1308095
0.0376702 0.0666667 0.1313638
0.0666667 0.0666667 0.1313638
0.1188965 0.0666667 0.1313638
0.1744783 0.0666667 0.1313638
0.2309290 0.0666667 0.1313638
0.2877170 0.0666667 0.1313638
0.3446678 0.0666667 0.1313638
0.4017089 0.0666667 0.1313638
0.4588048 0.0666667 0.1313638
0.5159364 0.0666667 0.1313638
0.5730923 0.0666667 0.1313638
0.6302657 0.0666667 0.1313638
0.6874518 0.0666667 0.1313638
0.7446477 0.0666667 0.1313638
0.8018510 0.0666667 0.1313638
0.8590602 0.0666667 0.1313638
0.0753404 0.1333333 0.1333333
0.0918520 0.1333333 0.1333333
0.1333333 0.1333333 0.1333333
0.1839492 0.1333333 0.1333333
0.2377931 0.1333333 0.1333333
0.2930246 0.1333333 0.1333333
0.3489566 0.1333333 0.1333333
0.4052853 0.1333333 0.1333333
0.4618581 0.1333333 0.1333333
0.5185909 0.1333333 0.1333333
0.5754339 0.1333333 0.1333333
0.6323557 0.1333333 0.1333333
0.6893357 0.1333333 0.1333333
0.7463597 0.1333333 0.1333333
0.8034178 0.1333333 0.1333333
0.8605029 0.1333333 0.1333333
0.1130107 0.2000000 0.1368702
0.1238829 0.2000000 0.1368702
0.1558803 0.2000000 0.1368702
0.2000000 0.2000000 0.1368702
0.2498416 0.2000000 0.1368702
0.3025038 0.2000000 0.1368702
0.3566896 0.2000000 0.1368702
0.4117709 0.2000000 0.1368702
0.4674156 0.2000000 0.1368702
0.5234349 0.2000000 0.1368702
0.5797144 0.2000000 0.1368702
0.6361813 0.2000000 0.1368702
0.6927871 0.2000000 0.1368702
0.7494986 0.2000000 0.1368702
0.8062923 0.2000000 0.1368702
0.8631509 0.2000000 0.1368702
0.1506809 0.2666667 0.1419662
0.1585771 0.2666667 0.1419662
0.1837040 0.2666667 0.1419662
0.2214733 0.2666667 0.1419662
0.2666667 0.2666667 0.1419662
0.3160557 0.2666667 0.1419662
0.3678983 0.2666667 0.1419662
0.4212524 0.2666667 0.1419662
0.4755862 0.2666667 0.1419662
0.5305840 0.2666667 0.1419662
0.5860492 0.2666667 0.1419662
0.6418543 0.2666667 0.1419662
0.6979132 0.2666667 0.1419662
0.7541662 0.2666667 0.1419662
0.8105705 0.2666667 0.1419662
0.8670949 0.2666667 0.1419662
0.1883511 0.3333333 0.1485235
0.1944637 0.3333333 0.1485235
0.2147459 0.3333333 0.1485235
0.2470350 0.3333333 0.1485235
0.2875620 0.3333333 0.1485235
0.3333333 0.3333333 0.1485235
0.3824260 0.3333333 0.1485235
0.4336742 0.3333333 0.1485235
0.4863686 0.3333333 0.1485235
0.5400665 0.3333333 0.1485235
0.5944827 0.3333333 0.1485235
0.6494275 0.3333333 0.1485235
0.7047705 0.3333333 0.1485235
0.7604200 0.3333333 0.1485235
0.8163100 0.3333333 0.1485235
0.8723915 0.3333333 0.1485235
0.2260213 0.4000000 0.1563934
0.2309637 0.4000000 0.1563934
0.2477657 0.4000000 0.1563934
0.2755560 0.4000000 0.1563934
0.3117606 0.4000000 0.1563934
0.3538683 0.4000000 0.1563934
0.4000000 0.4000000 0.1563934
0.4488836 0.4000000 0.1563934
0.4996831 0.4000000 0.1563934
0.5518475 0.4000000 0.1563934
0.6050075 0.4000000 0.1563934
0.6589105 0.4000000 0.1563934
0.7133793 0.4000000 0.1563934
0.7682873 0.4000000 0.1563934
0.8235418 0.4000000 0.1563934
0.8790739 0.4000000 0.1563934
0.2636916 0.4666667 0.1654071
0.2678145 0.4666667 0.1654071
0.2820436 0.4666667 0.1654071
0.3061966 0.4666667 0.1654071
0.3385673 0.4666667 0.1654071
0.3771647 0.4666667 0.1654071
0.4202890 0.4666667 0.1654071
0.4666667 0.4666667 0.1654071
0.5153950 0.4666667 0.1654071
0.5658447 0.4666667 0.1654071
0.6175764 0.4666667 0.1654071
0.6702795 0.4666667 0.1654071
0.7237317 0.4666667 0.1654071
0.7777706 0.4666667 0.1654071
0.8322758 0.4666667 0.1654071
0.8871569 0.4666667 0.1654071
0.3013618 0.5333333 0.1753968
0.3048826 0.5333333 0.1753968
0.3171543 0.5333333 0.1753968
0.3383645 0.5333333 0.1753968
0.3674080 0.5333333 0.1753968
0.4027567 0.5333333 0.1753968
0.4429467 0.5333333 0.1753968
0.4867771 0.5333333 0.1753968
0.5333333 0.5333333 0.1753968
0.5819418 0.5333333 0.1753968
0.6321115 0.5333333 0.1753968
0.6834843 0.5333333 0.1753968
0.7357967 0.5333333 0.1753968
0.7888527 0.5333333 0.1753968
0.8425048 0.5333333 0.1753968
0.8966404 0.5333333 0.1753968
0.3390320 0.6000000 0.1862083
0.3420936 0.6000000 0.1862083
0.3528374 0.6000000 0.1862083
0.3716486 0.6000000 0.1862083
0.3978316 0.6000000 0.1862083
0.4302360 0.6000000 0.1862083
0.4676409 0.6000000 0.1862083
0.5089597 0.6000000 0.1862083
0.5533083 0.6000000 0.1862083
0.6000000 0.6000000 0.1862083
0.6485131 0.6000000 0.1862083
0.6984537 0.6000000 0.1862083
0.7495247 0.6000000 0.1862083
0.8015001 0.6000000 0.1862083
0.8542069 0.6000000 0.1862083
0.9075113 0.6000000 0.1862083
0.3767022 0.6666667 0.1977068
0.3794032 0.6666667 0.1977068
0.3889274 0.6666667 0.1977068
0.4057627 0.6666667 0.1977068
0.4294917 0.6666667 0.1977068
0.4592600 0.6666667 0.1977068
0.4940700 0.6666667 0.1977068
0.5329665 0.6666667 0.1977068
0.5751241 0.6666667 0.1977068
0.6198686 0.6666667 0.1977068
0.6666667 0.6666667 0.1977068
0.7151021 0.6666667 0.1977068
0.7648520 0.6666667 0.1977068
0.8156659 0.6666667 0.1977068
0.8673484 0.6666667 0.1977068
0.9197458 0.6666667 0.1977068
0.4143725 0.7333333 0.2097777
0.4167835 0.7333333 0.2097777
0.4253155 0.7333333 0.2097777
0.4405051 0.7333333 0.2097777
0.4621251 0.7333333 0.2097777
0.4895478 0.7333333 0.2097777
0.5219693 0.7333333 0.2097777
0.5585668 0.7333333 0.2097777
0.5985889 0.7333333 0.2097777
0.6413929 0.7333333 0.2097777
0.6864497 0.7333333 0.2097777
0.7333333 0.7333333 0.2097777
0.7817043 0.7333333 0.2097777
0.8312930 0.7333333 0.2097777
0.8818855 0.7333333 0.2097777
0.9333112 0.7333333 0.2097777
0.4520427 0.8000000 0.2223256
0.4542160 0.8000000 0.2223256
0.4619274 0.8000000 0.2223256
0.4757314 0.8000000 0.2223256
0.4955314 0.8000000 0.2223256
0.5208722 0.8000000 0.2223256
0.5511120 0.8000000 0.2223256
0.5855521 0.8000000 0.2223256
0.6235212 0.8000000 0.2223256
0.6644200 0.8000000 0.2223256
0.7077366 0.8000000 0.2223256
0.7530459 0.8000000 0.2223256
0.8000000 0.8000000 0.2223256
0.8483166 0.8000000 0.2223256
0.8977673 0.8000000 0.2223256
0.9481672 0.8000000 0.2223256
0.4897129 0.8666667 0.2352720
0.4916881 0.8666667 0.2352720
0.4987110 0.8666667 0.2352720
0.5113366 0.8666667 0.2352720
0.5295580 0.8666667 0.2352720
0.5530509 0.8666667 0.2352720
0.5813067 0.8666667 0.2352720
0.6137381 0.8666667 0.2352720
0.6497536 0.8666667 0.2352720
0.6888039 0.8666667 0.2352720
0.7304032 0.8666667 0.2352720
0.7741361 0.8666667 0.2352720
0.8196536 0.8666667 0.2352720
0.8666667 0.8666667 0.2352720
0.9149368 0.8666667 0.2352720
0.9642680 0.8666667 0.2352720
0.5273831 0.9333333 0.2485523
0.5291909 0.9333333 0.2485523
0.5356290 0.9333333 0.2485523
0.5472427 0.9333333 0.2485523
0.5640873 0.9333333 0.2485523
0.5859375 0.9333333 0.2485523
0.6123931 0.9333333 0.2485523
0.6429640 0.9333333 0.2485523
0.6771345 0.9333333 0.2485523
0.7144076 0.9333333 0.2485523
0.7543294 0.9333333 0.2485523
0.7965007 0.9333333 0.2485523
0.8405779 0.9333333 0.2485523
0.8862702 0.9333333 0.2485523
0.9333333 0.9333333 0.2485523
0.9815633 0.9333333 0.2485523
0.5650534 1.0000000 0.2621137
0.5667179 1.0000000 0.2621137
0.5726539 1.0000000 0.2621137
0.5833912 1.0000000 0.2621137
0.5990280 1.0000000 0.2621137
0.6194143 1.0000000 0.2621137
0.6442376 1.0000000 0.2621137
0.6730910 1.0000000 0.2621137
0.7055286 1.0000000 0.2621137
0.7411050 1.0000000 0.2621137
0.7794015 1.0000000 0.2621137
0.8200396 1.0000000 0.2621137
0.8626861 1.0000000 0.2621137
0.9070529 1.0000000 0.2621137
0.9528938 1.0000000 0.2621137
1.0000000 1.0000000 0.2621137
0.0000000 0.0000000 0.1962143
0.0572439 0.0000000 0.1962143
0.1144878 0.0000000 0.1962143
0.1717317 0.0000000 0.1962143
0.2289756 0.0000000 0.1962143
0.2862195 0.0000000 0.1962143
0.3434633 0.0000000 0.1962143
0.4007072 0.0000000 0.1962143
0.4579511 0.0000000 0.1962143
0.5151950 0.0000000 0.1962143
0.5724389 0.0000000 0.1962143
0.6296828 0.0000000 0.1962143
0.6869267 0.0000000 0.1962143
0.7441706 0.0000000 0.1962143
0.8014145 0.0000000 0.1962143
0.8586584 0.0000000 0.1962143
0.0376702 0.0666667 0.1965555
0.0666667 0.0666667 0.1965555
0.1188965 0.0666667 0.1965555
0.1744783 0.0666667 0.1965555
0.2309290 0.0666667 0.1965555
0.2877170 0.0666667 0.1965555
0.3446678 0.0666667 0.1965555
0.4017089 0.0666667 0.1965555
0.4588048 0.0666667 0.1965555
0.5159364 0.0666667 0.1965555
0.5730923 0.0666667 0.1965555
0.6302657 0.0666667 0.1965555
0.6874518 0.0666667 0.1965555
0.7446477 0.0666667 0.1965555
